flaticon/medical/implants-3.svg

<svg xmlns="http://www.w3.org/2000/svg" width="32" height="32" viewBox="0 0 24 24">
    <path d="M 23.730469 10.289062 C 23.730469 10.28125 23.734375 10.269531 23.738281 10.257812 L 23.746094 10.214844 C 24.132812 8.386719 24.175781 5.878906 23.136719 4.335938 C 22.105469 2.804688 19.761719 2.082031 17.90625 2.722656 C 17.773438 2.769531 17.664062 2.824219 17.558594 2.875 C 17.367188 2.96875 17.28125 3.007812 17.125 2.988281 C 16.957031 2.96875 16.738281 2.910156 16.53125 2.855469 C 16.316406 2.800781 16.097656 2.746094 15.898438 2.714844 C 15.128906 2.605469 14.402344 2.621094 13.617188 2.757812 C 12.417969 2.972656 11.519531 3.558594 10.949219 4.503906 C 10.945312 4.511719 10.945312 4.515625 10.941406 4.523438 C 10.597656 3.507812 9.945312 2.410156 9.183594 1.867188 C 7.613281 0.742188 5.414062 0.695312 2.640625 1.734375 C 1.242188 2.253906 -0.113281 3.742188 0.0078125 5.886719 C 0.078125 7.117188 0.269531 8.578125 0.542969 10.03125 C 0.210938 10.265625 0 10.648438 0 11.066406 L 0 18.988281 C 0 21.207031 1.804688 23.011719 4.023438 23.011719 L 19.976562 23.011719 C 22.195312 23.011719 24 21.207031 24 18.988281 L 24 11.066406 C 24 10.785156 23.902344 10.511719 23.730469 10.289062 Z M 2.917969 2.480469 C 4.15625 2.019531 5.261719 1.785156 6.222656 1.785156 C 7.207031 1.785156 8.039062 2.03125 8.71875 2.515625 C 9.6875 3.210938 10.40625 5.023438 10.398438 5.859375 L 10.398438 5.9375 C 10.390625 5.984375 10.382812 6.03125 10.375 6.078125 C 10.351562 6.195312 10.332031 6.316406 10.316406 6.4375 C 10.304688 6.527344 10.292969 6.621094 10.285156 6.710938 C 10.277344 6.796875 10.269531 6.886719 10.265625 6.972656 C 10.257812 7.085938 10.253906 7.199219 10.25 7.316406 C 10.25 7.371094 10.25 7.425781 10.25 7.480469 C 10.25 7.808594 10.261719 8.148438 10.296875 8.507812 C 10.257812 9 10.210938 9.457031 10.15625 9.886719 L 10.121094 10.128906 C 10.039062 10.6875 9.945312 11.183594 9.832031 11.632812 C 9.828125 11.648438 9.828125 11.664062 9.820312 11.683594 C 9.785156 11.828125 9.746094 11.972656 9.707031 12.109375 C 8.996094 14.519531 8.496094 14.589844 5.605469 14.589844 C 4.054688 14.589844 2.410156 14.351562 1.9375 12.585938 C 1.875 12.351562 1.8125 12.113281 1.753906 11.871094 C 1.734375 11.785156 1.714844 11.699219 1.695312 11.609375 C 1.652344 11.433594 1.609375 11.25 1.570312 11.070312 C 1.554688 10.992188 1.539062 10.917969 1.523438 10.84375 C 1.15625 9.117188 0.890625 7.289062 0.808594 5.839844 C 0.707031 4.101562 1.796875 2.902344 2.917969 2.480469 Z M 23.199219 18.988281 C 23.199219 20.765625 21.753906 22.214844 19.976562 22.214844 L 4.023438 22.214844 C 2.246094 22.214844 0.800781 20.765625 0.800781 18.988281 L 0.800781 11.296875 C 0.820312 11.382812 0.839844 11.46875 0.859375 11.554688 C 0.894531 11.707031 0.929688 11.863281 0.964844 12.015625 C 1.03125 12.28125 1.097656 12.539062 1.164062 12.792969 C 1.78125 15.09375 3.859375 15.386719 5.601562 15.386719 C 8.621094 15.386719 9.617188 15.25 10.472656 12.335938 C 10.53125 12.140625 10.582031 11.9375 10.632812 11.726562 C 10.636719 11.707031 10.644531 11.6875 10.648438 11.671875 C 10.699219 11.453125 10.746094 11.226562 10.789062 10.992188 C 10.796875 11.011719 10.800781 11.03125 10.808594 11.050781 C 10.828125 11.125 10.847656 11.1875 10.867188 11.25 C 10.871094 11.265625 10.878906 11.28125 10.882812 11.296875 C 11.015625 11.714844 11.167969 12.140625 11.363281 12.546875 C 11.511719 12.859375 11.679688 13.15625 11.894531 13.425781 C 12.085938 13.667969 12.320312 13.90625 12.574219 14.121094 L 13.085938 13.507812 C 12.875 13.328125 12.679688 13.128906 12.519531 12.929688 C 12.109375 12.410156 11.855469 11.722656 11.644531 11.054688 C 11.644531 11.050781 11.644531 11.046875 11.640625 11.042969 C 11.597656 10.90625 11.558594 10.769531 11.519531 10.628906 C 11.503906 10.582031 11.492188 10.53125 11.480469 10.480469 C 11.457031 10.394531 11.433594 10.308594 11.414062 10.222656 C 11.289062 9.726562 11.164062 9.105469 11.09375 8.433594 C 11.070312 8.21875 11.054688 8.011719 11.050781 7.808594 C 11.050781 7.804688 11.050781 7.804688 11.050781 7.800781 C 11.027344 7.164062 11.074219 6.585938 11.1875 6.074219 L 11.1875 6.0625 C 11.28125 5.652344 11.425781 5.265625 11.632812 4.917969 C 12.085938 4.167969 12.78125 3.71875 13.753906 3.546875 C 14.457031 3.421875 15.101562 3.410156 15.785156 3.507812 C 15.9375 3.53125 16.136719 3.582031 16.328125 3.628906 C 16.535156 3.683594 16.746094 3.734375 16.941406 3.765625 C 17.597656 4.089844 18.195312 4.519531 18.671875 5.015625 C 18.75 5.097656 18.855469 5.136719 18.960938 5.136719 C 19.058594 5.136719 19.160156 5.097656 19.238281 5.023438 C 19.398438 4.871094 19.402344 4.617188 19.25 4.457031 C 18.910156 4.109375 18.515625 3.792969 18.089844 3.511719 C 18.117188 3.5 18.140625 3.488281 18.167969 3.480469 C 19.675781 2.957031 21.644531 3.554688 22.472656 4.78125 C 23.375 6.117188 23.316406 8.378906 22.960938 10.050781 L 22.953125 10.09375 C 22.945312 10.125 22.9375 10.164062 22.929688 10.203125 L 22.90625 10.324219 C 22.703125 11.25 22.476562 11.972656 22.226562 12.488281 C 22.167969 12.609375 22.109375 12.714844 22.046875 12.8125 C 22.039062 12.824219 22.035156 12.835938 22.027344 12.84375 C 21.96875 12.9375 21.90625 13.015625 21.84375 13.085938 C 21.832031 13.101562 21.820312 13.113281 21.804688 13.128906 C 21.753906 13.179688 21.703125 13.226562 21.652344 13.265625 C 21.636719 13.277344 21.617188 13.292969 21.601562 13.304688 C 21.535156 13.347656 21.46875 13.382812 21.402344 13.402344 L 21.640625 14.167969 C 21.730469 14.136719 21.8125 14.101562 21.894531 14.0625 C 21.953125 14.03125 22.007812 13.992188 22.0625 13.953125 C 22.078125 13.941406 22.101562 13.929688 22.117188 13.917969 C 22.1875 13.867188 22.253906 13.808594 22.320312 13.746094 C 22.320312 13.746094 22.320312 13.742188 22.320312 13.742188 C 22.644531 13.425781 22.902344 12.980469 23.109375 12.476562 C 23.109375 12.472656 23.109375 12.472656 23.113281 12.46875 C 23.140625 12.398438 23.171875 12.324219 23.199219 12.25 Z M 23.199219 18.988281"/>
    <path d="M 20.527344 10.59375 C 20.734375 10.523438 20.847656 10.296875 20.777344 10.085938 C 20.710938 9.878906 20.484375 9.761719 20.273438 9.832031 L 20 9.925781 L 20 7.648438 L 18.566406 6.214844 L 15.835938 6.214844 L 14.398438 7.648438 L 14.398438 11.667969 L 13.878906 11.832031 C 13.667969 11.898438 13.550781 12.125 13.617188 12.335938 C 13.671875 12.503906 13.832031 12.613281 14 12.613281 C 14.039062 12.613281 14.082031 12.605469 14.121094 12.59375 L 14.398438 12.503906 L 14.398438 14.066406 L 13.878906 14.230469 C 13.667969 14.300781 13.550781 14.523438 13.617188 14.734375 C 13.671875 14.90625 13.832031 15.011719 14 15.011719 C 14.039062 15.011719 14.082031 15.007812 14.121094 14.996094 L 14.398438 14.90625 L 14.398438 16.46875 L 13.878906 16.632812 C 13.667969 16.699219 13.550781 16.925781 13.617188 17.136719 C 13.671875 17.304688 13.832031 17.414062 14 17.414062 C 14.039062 17.414062 14.082031 17.40625 14.121094 17.394531 L 14.398438 17.304688 L 14.398438 18.214844 L 15.199219 18.214844 L 15.199219 19.546875 L 16.601562 21.414062 L 17.800781 21.414062 L 19.199219 19.546875 L 19.199219 18.214844 L 20 18.214844 L 20 15.570312 L 20.527344 15.394531 C 20.734375 15.324219 20.847656 15.097656 20.777344 14.886719 C 20.710938 14.679688 20.484375 14.5625 20.273438 14.632812 L 20 14.726562 L 20 13.167969 L 20.527344 12.992188 C 20.734375 12.921875 20.847656 12.695312 20.777344 12.488281 C 20.707031 12.277344 20.484375 12.164062 20.273438 12.234375 L 20 12.324219 L 20 10.769531 Z M 15.199219 7.980469 L 16.164062 7.011719 L 18.234375 7.011719 L 19.199219 7.980469 L 19.199219 9.414062 L 15.199219 9.414062 Z M 19.199219 12.589844 L 18.273438 12.902344 C 18.0625 12.96875 17.949219 13.195312 18.019531 13.40625 C 18.078125 13.574219 18.234375 13.679688 18.402344 13.679688 C 18.441406 13.679688 18.484375 13.671875 18.527344 13.660156 L 19.199219 13.433594 L 19.199219 14.992188 L 18.273438 15.300781 C 18.066406 15.371094 17.953125 15.597656 18.019531 15.808594 C 18.078125 15.972656 18.234375 16.082031 18.402344 16.082031 C 18.441406 16.082031 18.484375 16.074219 18.527344 16.058594 L 19.199219 15.835938 L 19.199219 17.414062 L 18.402344 17.414062 L 18.402344 19.28125 L 17.402344 20.613281 L 17 20.613281 L 16 19.28125 L 16 17.414062 L 15.199219 17.414062 L 15.199219 17.050781 L 16.921875 16.503906 C 17.132812 16.4375 17.25 16.214844 17.183594 16.003906 C 17.117188 15.792969 16.890625 15.675781 16.679688 15.742188 L 15.199219 16.210938 L 15.199219 14.652344 L 16.921875 14.105469 C 17.132812 14.039062 17.25 13.8125 17.183594 13.601562 C 17.117188 13.390625 16.890625 13.273438 16.679688 13.34375 L 15.199219 13.8125 L 15.199219 12.25 L 16.921875 11.707031 C 17.132812 11.636719 17.25 11.414062 17.183594 11.203125 C 17.117188 10.992188 16.890625 10.875 16.679688 10.941406 L 15.199219 11.414062 L 15.199219 10.214844 L 19.136719 10.214844 L 18.273438 10.5 C 18.066406 10.570312 17.953125 10.796875 18.019531 11.007812 C 18.078125 11.175781 18.234375 11.28125 18.402344 11.28125 C 18.441406 11.28125 18.484375 11.273438 18.527344 11.261719 L 19.199219 11.035156 Z M 19.199219 12.589844"/>
</svg>

<svg xmlns="http://www.w3.org/2000/svg" width="32" height="32" viewBox="0 0 24 24">
    <path d="M23.73 10.29c0-.009.004-.02.008-.032l.008-.043c.387-1.828.43-4.336-.61-5.88-1.03-1.53-3.374-2.253-5.23-1.612-.133.047-.242.101-.347.152-.192.094-.278.133-.434.113-.168-.02-.387-.078-.594-.133a7.187 7.187 0 0 0-.633-.14 7.107 7.107 0 0 0-2.28.043c-1.2.215-2.098.8-2.669 1.746l-.008.02c-.343-1.016-.996-2.114-1.757-2.657C7.614.742 5.414.695 2.64 1.734 1.242 2.254-.113 3.742.008 5.887c.07 1.23.262 2.691.535 4.144A1.272 1.272 0 0 0 0 11.066v7.922a4.028 4.028 0 0 0 4.023 4.024h15.954A4.028 4.028 0 0 0 24 18.988v-7.922c0-.28-.098-.554-.27-.777zM2.918 2.48c1.238-.46 2.344-.695 3.305-.695.984 0 1.816.246 2.496.73.969.696 1.687 2.508 1.68 3.344v.079l-.024.14a6.508 6.508 0 0 0-.11.895 9.673 9.673 0 0 0-.015.343v.164c0 .329.012.668.047 1.028-.04.492-.086.949-.14 1.379l-.036.242a15.201 15.201 0 0 1-.289 1.504c-.004.015-.004.031-.012.05-.035.145-.074.29-.113.426-.71 2.41-1.21 2.48-4.102 2.48-1.55 0-3.195-.237-3.668-2.003a31.708 31.708 0 0 1-.183-.715c-.02-.086-.04-.172-.059-.262a21.78 21.78 0 0 1-.125-.539c-.015-.078-.03-.152-.047-.226C1.156 9.117.891 7.289.81 5.84c-.102-1.738.988-2.938 2.109-3.36zm20.281 16.508a3.23 3.23 0 0 1-3.222 3.227H4.023a3.23 3.23 0 0 1-3.222-3.227v-7.691l.058.258.106.46c.066.266.133.524.2.778.616 2.3 2.694 2.594 4.437 2.594 3.02 0 4.015-.137 4.87-3.051.06-.195.11-.399.16-.61.005-.019.013-.039.016-.054.051-.219.098-.445.141-.68.008.02.012.04.02.059.02.074.039.136.058.199.004.016.012.031.016.047.133.418.285.844.48 1.25.149.312.317.61.532.879.19.242.425.48.68.695l.51-.613a4.38 4.38 0 0 1-.565-.578c-.41-.52-.665-1.207-.875-1.875 0-.004 0-.008-.004-.012a12.804 12.804 0 0 1-.121-.414c-.016-.047-.028-.098-.04-.149a12.94 12.94 0 0 1-.387-2.047 7.005 7.005 0 0 1-.042-.624V7.8a6.852 6.852 0 0 1 .136-1.727v-.011c.094-.41.239-.797.446-1.145.453-.75 1.148-1.2 2.12-1.371a6.232 6.232 0 0 1 2.032-.04c.152.024.352.075.543.122.207.055.418.105.613.137a6.256 6.256 0 0 1 1.73 1.25.396.396 0 0 0 .29.12.4.4 0 0 0 .29-.68 7.077 7.077 0 0 0-1.161-.944c.027-.012.05-.024.078-.032 1.508-.523 3.477.075 4.305 1.301.902 1.336.843 3.598.488 5.27l-.008.043a2.54 2.54 0 0 0-.023.11l-.024.12c-.203.926-.43 1.649-.68 2.164a3.098 3.098 0 0 1-.18.325c-.007.011-.01.023-.019.03a1.783 1.783 0 0 1-.183.243c-.012.016-.024.027-.04.043-.05.05-.1.098-.152.137l-.05.039a.783.783 0 0 1-.2.097l.239.766a2.47 2.47 0 0 0 .254-.105c.058-.032.113-.07.168-.11.015-.012.039-.023.054-.035.07-.05.137-.11.203-.172v-.004c.325-.316.582-.762.79-1.265 0-.004 0-.004.003-.008.028-.07.059-.145.086-.219zm0 0"/>
    <path d="M20.527 10.594a.402.402 0 0 0-.254-.762L20 9.926V7.648l-1.434-1.433h-2.73l-1.438 1.433v4.02l-.52.164a.402.402 0 0 0-.26.504.406.406 0 0 0 .503.258l.277-.09v1.562l-.52.164a.404.404 0 0 0-.26.504.4.4 0 0 0 .382.278.43.43 0 0 0 .121-.016l.277-.09v1.563l-.52.164a.402.402 0 0 0-.26.504.406.406 0 0 0 .503.258l.277-.09v.91h.801v1.332l1.403 1.867H17.8l1.398-1.867v-1.332H20V15.57l.527-.175a.402.402 0 0 0-.254-.762l-.273.094v-1.559l.527-.176a.4.4 0 0 0-.254-.758l-.273.09V10.77zM15.2 7.98l.965-.968h2.07l.965.968v1.434h-4zm4 4.61l-.926.312a.395.395 0 0 0-.253.504.406.406 0 0 0 .507.254l.672-.226v1.558l-.926.309a.407.407 0 0 0-.253.508.411.411 0 0 0 .382.273.37.37 0 0 0 .125-.023l.672-.223v1.578h-.797v1.867l-1 1.332H17l-1-1.332v-1.867h-.8v-.363l1.722-.547a.398.398 0 0 0 .262-.5.402.402 0 0 0-.504-.262l-1.48.469v-1.559l1.722-.547a.402.402 0 0 0 .262-.503.397.397 0 0 0-.504-.258l-1.48.469V12.25l1.722-.543a.404.404 0 0 0 .262-.504.402.402 0 0 0-.504-.262l-1.48.473v-1.2h3.937l-.864.286a.407.407 0 0 0-.253.508.406.406 0 0 0 .507.254l.672-.227zm0 0"/>
</svg>
